X:42
T:mwynen glan teifi em
N:transposed from Gm
Z:ceri
M:2/4
L:1/8
Q:1/8=180
K:Em
E/F/|GEFA|G3F|G>GAc|B3B/c/|dBce|d3c|BAGF|E3:||
B/c/|dBce|d3c|BAGA|B3F|G>GAA|{A}B3B|cBAG|F3G|
E/F/G/A/Bc|d3e|dcBG|{G}F3G|EFGA|{A}B2zc|B>AG~F|E3:||
